X:1
T:In omni tribulatione
T:In omni tribulatione
T:Thomas Sailly
C:Thomas Sailly
%%score [ 1 [ 2 3 ] ( 4 5 ) ]
L:1/8
Q:1/4=120
M:2/2
K:C
V:1 treble nm="Alto" snm="A"
V:2 treble-8 nm="Tenor 1" snm="T 1"
V:3 treble-8 nm="Tenor 2" snm="T 2"
V:4 bass nm="Bass" snm="B"
V:5 bass 
V:1
 z8 | z4 D4 | E4 ^F2 G2- | G2 A2 G4- | G2 G2 A2 B2 | c8 | B4 z2 d2- | d2 c4 A2 | c3 C C2 C2 | %9
w: |In|o- mni tri-|* bu- la-|* ti- o- ne|tu-|a, in|_ o- mni|tri- bu- la- ti-|
 D3 D E4 | A4 F4- | F2 E2 F2 G2 | E8 | z2 A4 A2 | _B3 B A2 A2- | AG F2 E4 | A,2 A>A ^G2 A2- | %17
w: o- ne tu-|a, stel-|* lam re- spi-|ce,|stel- lam|re- spi- ce vo-|* ca Ma- ri-|am, vo- ca Ma- ri-|
 A2 ^G2 A4 | z8 | G6 ^F2 | G3 A B2 c2- | c2 B2 A3 A | D4 z4 | z8 | z4 z2 A2 | G4 E2 G2- | %26
w: * * am,||in pe-|ri- cu- lis, in|_ an- gu- sti-|is,||in|re- bus du-|
 G2 ^F2 G4- | G4 c4 | B4 G2 A2- | A2 B2 c4 | z8 | z2 G2 A2 B2 | c3 B A2 A2 | ^G4 z4 | z4 G3 G | %35
w: * bi- is|_ Ma-|ri- am co-|* gi- ta,||Ma- ri- am|in- * * vo-|ca,|non re-|
 A2 B2 c A2 ^G | A2 A4 B2 | c3 c B2 G2- | G2 G2 A3 A | G2 c3 c c2 | A2 G2 A4 | G2 E2 F3 F | E4 z4 | %43
w: ce- dat a cor- *|de et ut|im- pe- tres, et|_ ut im- pe-|tres e- ius o-|ra- ti- o-|nis suf- fra- gi-|um,|
 z8 | z8 | z2 c2 B3 B | A2 A4 ^G2 | B2 c2 B4 | A2 A2 G3 G | F2 E4 D2 | D2 ^C2 D4 | E2 GA BcdB | %52
w: ||non de- se-|ras con- ver-|sa- ti- o-|nis, non de- se-|ras con- ver-|sa- ti- o-|nis ex- * * * * *|
 c2 A3 G/F/ E2 | ^F8 |] %54
w: * em- * * *|plum.|
V:2
 z8 | z8 | z8 | z4 d4 | e4 ^f2 g2- | g2 a2 g2 c2 | d2 e2 f4 | e8- | e4 z2 A2- | A2 d2 c2 B2 | %10
w: |||In|o- mni tri-|* bu- la- ti-|o- ne tu-|a,|_ stel|_ lam re- spi-|
 A4 d4- | d2 e2 d3 d | ^c8 | z2 f2 e2 ^f2 | g2 d2 d3 d | ^c2 d4 cB | ^c2 d2 e4- | e4 z2 c2- | %18
w: ce, stel-|* lam re- spi-|ce,|vo- ca Ma-|ri- am, vo- ca|Ma- ri- * *|* * am,|_ in|
 c2 c2 d2 d2 | e2 e4 dc | d4 G4 | d6 A2 | B2 B2 A4 | G2 AB cdec | f3 f e4- | e4 z2 e2 | d4 B2 c2- | %27
w: _ pe- ri- cu-|lis, in _ _|_ an-|gu- sti-|is, in re-|bus du- * * * * *|* bi- is,|_ in|re- bus du|
 c2 B2 A2 A2 | G2 E2 c4 | d4 e4 | z2 A2 f4- | f2 e2 d3 e | cd e4 d2 | e2 B3 B c2 | d3 c d2 e2 | %35
w: _ bi- is Ma-|ri- am co-|gi- ta,|Ma- ri-|* am in _|_ _ _ vo-|ca, non re- ce-|bat ab o- re|
 fe g2 ge e2 | ^c2 d4 d2 | e3 e d2 d2- | d2 e2 f3 f | e2 e3 e e2 | f2 e2 c2 d2 | G2 A4 F2 | %42
w: non re- ce- bat a cor-|de et ut|im- pe- tres, et|_ ut im- pe-|tres e- ius o-|ra- ti- o- nis|suf- fra- gi-|
 G2 g2 f3 f | e2 e4 d2 | d2 c2 d2 e2 | d g2 ^f g2 g2 | f3 f e4- | e8 | z2 c4 B2 | d2 e2 c2 GB | %50
w: um, non de- se-|ras con- ver-|sa- ti- o- nis|ex- em- * plum, non|de- se- ras,|_|con- ver-|sa- ti- o- nis ex-|
 A2 G2 A3 A | cG c2 B4 | e2 d4 ^c2 | d8 |] %54
w: em- * plum, ex-|em- * * *||plum.|
V:3
 A8 | F4 D2 d2- | d2 c2 c2 B2 | d2 A2 B4 | G2 c4 d2 | e2 E2 E4 | G4 A2 A2- | AA A2 z4 | A8 | %9
w: In|o- mni tri-|* bu- la- ti-|o- ne tu-|a stel- lam|re- spi- ce,|stel- lam re-|* spi- ce,|in|
 F4 E2 e2 | d2 c4 B2 | A3 A D4 | E2 A4 e2 | d3 d ^c4 | d4 D2 D2 | A4 A2 e2- | e2 d4 c2 | %17
w: o- mni tri-|bu- la- ti-|o- ne tu-|a, stel- lam|re- spi- ce,|vo- ca Ma-|ri am, vo-|* ca Ma-|
 B4 A2 A2- | A2 G2 A2 B2 | c4 z2 c2- | c2 B4 AG | A2 G4 ^F2 | G4 z2 d2 | c4 A2 c2- | c2 B2 c4 | %25
w: ri- am, in|_ pe- ri- cu-|lis, in|_ an- * *|gu- * sti-|is, in|re- bus du-|* bi- is,|
 z8 | z2 A2 G4 | E2 G4 F2 | G4 z2 A2 | F4 G2 A2- | AB c4 B2 | c4 z2 G2 | A3 G F2 F2 | E4 G3 G | %34
w: |in re-|bus du- bi-|is Ma-|ri- am co-|* * * gi-|ta, Ma-|ri- am in- vo-|ca, non re-|
 A2 Bc B2 cc- | cc d2 ec B2 | A2 ^F4 G2 | G3 G G2 B2- | B2 c2 c3 c | c2 G3 G G2 | d2 B2 A3 A | %41
w: ce- bat ab o- re non|_ re- ce- bat a cor-|de et ut|im- pe- tres, et|_ ut im- pe-|tres e- ius o-|ra- ti- o- nis|
 B2 c4 B2 | c4 z2 d2 | c3 c B4 | z2 A4 G2 | B2 c2 d4 | d2 d2 c2 BA | ^G2 A4 G2 | A4 z4 | A4 G3 G | %50
w: suf- fra- gi-|um, non|de- se- ras|con- ver-|sa- ti- o-|nis ex- em- * *||plum,|non de- se-|
 ^F2 G4 F2 | G2 E2 D2 G2- | G2 F2 E4 | D8 |] %54
w: ras con- ver-|sa- ti- o- nis|_ ex- em-|plum.|
V:4
 z4 D,4- | D,4 _B,,4 | A,,2 A,4 G,2 | G,2 ^F,2 G,2 G,,2 | C,3 B,, A,,2 G,,2 | C,6 A,,2 | %6
w: In|_ o-|mni tri- bu-|la- ti- o- ne|tu- * * a|stel- lam|
 G,,4 D,3 D, | A,,4 A,4- | A,4 F,4 | D,2 A,4 G,2 | F,3 E, D,4- | D,2 C,2 _B,,4 | A,,8 | D,4 A,4 | %14
w: re- * spi-|ce, in|_ o-|mni tri- bu-|la- ti- o-|* ne tu-|a,|stel- lam|
 G,3 G, ^F,4 | z4 z2 A,2- | A,G, F,2 E,4- | E,4 A,,2 F,2- | F,2 E,2 F,2 G,2 | C,2 C4 A,2 | %20
w: re- spi- ce|vo-|* ca Ma- ri-|* am, in|_ pe- ri- cu-|lis, in an-|
 G,3 F, E,2 E,2 | D,8 | z2 G,2 F,4 | E,2 F,4 E,2 | D,2 D,2 C,2 A,,2 | C,8 | D,4 E,4 | z8 | %28
w: gu- * * sti-|is,|in re-|bus du- bi-|is Ma- ri- am|co-|gi- ta,||
 z4 z2 F,2 | D,4 C,4 | F,3 E, D,2 D,2 | C,4 z4 | z8 | z4 E,3 E, | F,2 G,A, G,2 C,2 | x8 | x8 | x8 | %38
w: Ma-|ri- am|co- * * gi-|ta,||non re-|ce- bat- ab o- re||||
 x8 | x8 | x8 | x8 | x8 | x8 | x8 | x8 | x8 | x8 | x8 | x8 | x8 | x8 | x8 | x8 |] %54
w: ||||||||||||||||
V:5
 x8 | x8 | x8 | x8 | x8 | x8 | x8 | x8 | x8 | x8 | x8 | x8 | x8 | x8 | x8 | x8 | x8 | x8 | x8 | %19
 x8 | x8 | x8 | x8 | x8 | x8 | x8 | x8 | x8 | x8 | x8 | x8 | x8 | x8 | x8 | x8 | %35
 F,A, G,2 C,>D, E,2 | A,,2 D,4 G,,2 | C,3 C, G,,2 G,2- | G,2 C,2 F,3 F, | C,2 C,3 C, C,2 | %40
 D,2 E,2 F,4 | E,2 C,2 D,3 D, | C,4 z4 | z2 A,2 G,3 G, | F,2 F,4 E,2 | G,2 A,2 G,4 | D,2 D,2 E,4- | %47
 E,8 | A,,2 F,2 E,3 E, | D,2 C,4 B,,2 | D,2 E,2 D,4 | C,4 G,,4 | A,,8 | D,8 |] %54

